X:1
T:My Heart Is Firmly Fixed
T:Tune: Aaron Williams, 1763; harm. Lowell Mason, 1792-1872 Text under copyright; for copyrighted material see Psalter Hymnal 108
T:SM ST. THOMAS www.hymnary.org/text/my_heart_is_fixed_o_god_a_grateful
T:My Heart Is Firmly Fixed
T:This music is in the public domain. You may freely use this score for personal and congregational worship. If you reproduce the score, please credit Hymnary.org as the source. 
T:This music is in the public domain. You may freely use this score for personal and congregational worship. If you reproduce the score, please credit Hymnary.org as the source. 
Z:This music is in the public domain. You may freely use this score for personal and congregational worship. If you reproduce the score, please credit Hymnary.org as the source.
%%score ( 1 2 ) ( 3 4 )
L:1/8
M:4/4
K:F
V:1 treble nm="SOPRANO ALTO" snm="S. A."
V:2 treble 
V:3 bass nm="TENOR BASS" snm="T. B."
V:4 bass 
V:1
 C2 | F2 F2 A2 GF | G6 AB | c2 BA B2 A2 | G6 |1 c2 | A2 F2 G2 C2 | F2 A2 c2 c2 | d2 cB A2 G2 | %9
 F6 x2 |] %10
V:2
 C2 | C2 C2 C2 C=B, | C6 F2 | F2 EF DE F2 | E6 |1 C2 | C2 C2 C2 C2 | C2 D2 E2 F2 | F2 F2 F2 E2 | %9
 C6 x2 |] %10
V:3
 C,2 | F,2 A,2 F,2 G,2 | E,6 C2 | C2 C2 B,2 C2 | C6 |1 G,2 | F,2 F,2 E,2 G,2 | A,2 F,2 G,2 C2 | %8
 B,2 CD C2 CB, | A,6 x2 |] %10
V:4
 C,2 | A,,2 F,,2 F,2 E,D, | C,6 F,G, | A,2 G,F, G,2 F,2 | C,6 |1 E,2 | F,2 A,,2 C,2 E,2 | %7
 F,2 D,2 C,2 A,,2 | B,,2 A,,B,, C,2 C,2 | F,6 x2 |] %10

